img/how_to_learn-heading.svg

<svg width="196" height="120" viewBox="0 0 196 120" fill="none" xmlns="http://www.w3.org/2000/svg">
<path d="M26.7721 0.064474H169.263C176.351 0.0727361 183.147 2.59217 188.159 7.07024C193.171 11.5483 195.991 17.6195 196 23.9524V56.9897C195.994 60.2511 195.24 63.4768 193.786 66.4681C192.331 69.4594 190.206 72.1528 187.542 74.3825C184.623 76.7734 181.168 78.5828 177.407 79.691C174.775 80.4459 172.027 80.8253 169.263 80.8152H120.543C108.388 80.8018 96.5388 84.218 86.6854 90.5768C76.832 96.9355 69.4776 105.912 65.6714 116.226C65.3827 117.07 64.838 117.826 64.0977 118.41C63.3574 118.994 62.4505 119.384 61.4774 119.536H60.5687C59.7657 119.535 58.9728 119.375 58.2475 119.067C57.5221 118.76 56.8825 118.311 56.3748 117.756L5.87193 61.33C2.06395 57.0879 -0.00762939 51.8108 0.000366211 46.3728V24.0773C-0.0180817 20.9272 0.661041 17.8049 1.99861 14.8902C3.3362 11.9755 5.30576 9.32602 7.79404 7.09416C10.2823 4.86229 13.2402 3.09218 16.4972 1.88574C19.7542 0.679299 23.2462 0.060313 26.7721 0.064474ZM10.8349 23.9524V46.404C10.838 49.6575 12.0694 52.815 14.3299 55.3658L59.1707 105.328C64.0475 96.4686 71.2402 88.7891 80.1407 82.9385C91.8768 75.1979 106.095 71.0473 120.683 71.1038H169.263C170.923 71.0943 172.573 70.8627 174.156 70.4168C177.369 69.4902 180.173 67.6815 182.169 65.2483C184.164 62.815 185.25 59.8812 185.27 56.8647V24.0773C185.261 20.2898 183.571 16.6601 180.57 13.9848C177.569 11.3095 173.503 9.80699 169.263 9.807H26.6672C22.4554 9.83994 18.4286 11.358 15.4635 14.0306C12.4983 16.7033 10.8347 20.3142 10.8349 24.0773V23.9524Z" fill="white" fill-opacity="0.3"/>
</svg>

<svg width="196" height="120" fill="none" xmlns="http://www.w3.org/2000/svg"><path d="M26.772.064h142.491c7.088.009 13.884 2.528 18.896 7.006 5.012 4.478 7.832 10.55 7.841 16.882V56.99a21.737 21.737 0 01-2.214 9.478c-1.455 2.991-3.58 5.685-6.244 7.914-2.919 2.391-6.374 4.2-10.135 5.309a29.183 29.183 0 01-8.144 1.124h-48.72c-12.155-.013-24.004 3.403-33.858 9.762-9.853 6.359-17.207 15.335-21.014 25.649a4.756 4.756 0 01-1.573 2.184 5.638 5.638 0 01-2.62 1.126h-.91a5.969 5.969 0 01-2.32-.469 5.371 5.371 0 01-1.873-1.311L5.872 61.33C2.064 57.088-.008 51.81 0 46.373V24.077a21.674 21.674 0 012-9.187c1.337-2.915 3.307-5.564 5.795-7.796s5.446-4.002 8.703-5.208A29.528 29.528 0 0126.772.064zM10.835 23.952v22.452c.003 3.253 1.234 6.411 3.495 8.962l44.84 49.962c4.877-8.86 12.07-16.539 20.97-22.39 11.737-7.74 25.955-11.89 40.543-11.834h48.58c1.66-.01 3.31-.241 4.893-.687 3.213-.927 6.017-2.736 8.013-5.169 1.995-2.433 3.081-5.367 3.101-8.383V24.077c-.009-3.787-1.699-7.417-4.7-10.092-3.001-2.675-7.067-4.178-11.307-4.178H26.667c-4.212.033-8.238 1.551-11.204 4.224-2.965 2.672-4.628 6.283-4.628 10.046v-.125z" fill="#fff" fill-opacity=".3"/></svg>
